X: 85
T:Breuddwyd y Wrach
T:The Witch's Dream
M:9/8
L:1/8
Q:130
C:Trad
S:Blodau'r Grug Collection Vol. 2
A:Wales
Z:brian_martin12345@yahoo.com
K:C
cec e2f gec|cec e2c dBG|cec e2f gec|ege fdB c3:||!
GBG B2c dBG|ede B2c dBG|GBG B2c dBG|ege fed c3:||
